icons/baby_formula.svg

<svg width="48" height="48" viewBox="0 0 48 48" fill="none" xmlns="http://www.w3.org/2000/svg">
<rect width="48" height="48" fill="white"/>
<path fill-rule="evenodd" clip-rule="evenodd" d="M10 5C10 4.44772 10.4477 4 11 4H29.5714C29.7704 4 29.9648 4.05933 30.1298 4.17041L37.5584 9.17041C37.8345 9.35623 38 9.66721 38 10V43C38 43.5523 37.5523 44 37 44H18.4286C18.2296 44 18.0352 43.9407 17.8702 43.8296L10.4416 38.8296C10.1655 38.6438 10 38.3328 10 38V5ZM12 6.87849V9.37246C12 9.64838 12.0571 9.92132 12.1677 10.1741L14.1534 14.7128C14.4471 15.3842 15.3395 15.522 15.8221 14.9705L16.5052 14.1898C16.8242 13.8252 17 13.3572 17 12.8728V10.2439L12 6.87849ZM19 11V42H36V23V11H19ZM33.7234 9H18.7338L14.2766 6H29.2662L33.7234 9ZM36 23C36 18.5817 32.4183 15 28 15C23.5817 15 20 18.5817 20 23C20 27.4183 23.5817 31 28 31C32.4183 31 36 27.4183 36 23ZM17 40.833V16.6099C16.4183 17.1028 15.7038 17.3293 15 17.3116V39.4869L17 40.833ZM13 38.1407V16.5H13.0119C12.729 16.2336 12.4915 15.9039 12.321 15.5144L12 14.7806V37.4677L13 38.1407ZM28 17C24.6863 17 22 19.6863 22 23C22 26.3137 24.6863 29 28 29C31.3137 29 34 26.3137 34 23C34 19.6863 31.3137 17 28 17ZM24 22C24 21.4477 24.4477 21 25 21H31V23H25C24.4477 23 24 22.5523 24 22ZM26 25C26 24.4477 26.4477 24 27 24H29V26H27C26.4477 26 26 25.5523 26 25Z" fill="black"/>
</svg>

<svg
  xmlns="http://www.w3.org/2000/svg"
  width="24"
  height="24"
  viewBox="0 0 24 24"
  fill="none"
  stroke="currentColor"
  stroke-width="2"
  stroke-linecap="round"
  stroke-linejoin="round"
>
  <rect width="48" height="48" />
  <path
    fill-rule="evenodd"
    d="M10 5a1 1 0 0 1 1-1h18.571a1 1 0 0 1 .559.17l7.428 5A1 1 0 0 1 38 10v33a1 1 0 0 1-1 1H18.429a1 1 0 0 1-.559-.17l-7.428-5A1 1 0 0 1 10 38zm2 1.878v2.494a2 2 0 0 0 .168.802l1.985 4.539a1 1 0 0 0 1.67.258l.682-.781A2 2 0 0 0 17 12.873v-2.63zM19 11v31h17V11zm14.723-2h-14.99l-4.456-3h14.99zM36 23a8 8 0 1 0-16 0 8 8 0 0 0 16 0M17 40.833V16.61a2.96 2.96 0 0 1-2 .702v22.175zm-4-2.692V16.5h.012a3 3 0 0 1-.691-.986L12 14.781v22.687zM28 17a6 6 0 1 0 0 12 6 6 0 0 0 0-12m-4 5a1 1 0 0 1 1-1h6v2h-6a1 1 0 0 1-1-1m2 3a1 1 0 0 1 1-1h2v2h-2a1 1 0 0 1-1-1"
    clip-rule="evenodd"
  />
</svg>
